telier/img/Logo.svg

<svg width="97" height="30" viewBox="0 0 97 30" fill="none" xmlns="http://www.w3.org/2000/svg">
<path d="M33.5443 6.03378C32.3207 5.82281 31.1815 6.62449 30.9283 7.80592C30.7173 9.02955 31.4768 10.1688 32.7004 10.422C33.924 10.6329 35.0633 9.83124 35.3165 8.6498C35.5696 7.42618 34.7679 6.24475 33.5443 6.03378Z" fill="#0047FF"/>
<path d="M13.5021 6.6245H0V9.53589H4.97892V22.1097H8.52324V9.53589H13.5021V6.6245Z" fill="#0047FF"/>
<path d="M23.2912 17.1308C23.3334 16.5401 23.3755 16.2447 23.3755 16.2025C23.3755 14.9789 23.1224 13.8819 22.5738 12.9536C22.0253 12.0253 21.308 11.308 20.3376 10.8017C19.8734 10.5485 19.4093 10.3798 18.903 10.2532C18.3545 10.1266 17.7637 10.0422 17.173 10.0422C15.9916 10.0422 14.8945 10.2954 13.924 10.8439C12.9536 11.3502 12.1941 12.1097 11.6456 13.038C11.097 13.9663 10.8017 15.0211 10.8017 16.2025C10.8017 17.384 11.097 18.4388 11.6456 19.3671C12.1941 20.2954 12.9958 21.0127 14.0507 21.5612C15.0633 22.0675 16.2869 22.3629 17.595 22.3629C19.0718 22.3629 20.3376 22.0675 21.308 21.4346L21.1392 20.6751L20.6329 18.481C20.211 18.8608 19.7891 19.1561 19.2827 19.3671C18.8186 19.5359 18.2701 19.6625 17.6372 19.6625C16.7511 19.6625 15.9916 19.4515 15.4008 19.0296C14.8101 18.6076 14.4304 18.0169 14.2616 17.2996H23.2912V17.1308ZM14.2616 15.1055C14.3882 14.346 14.6835 13.7553 15.2321 13.2912C15.7806 12.8692 16.4135 12.616 17.2152 12.616C17.9747 12.616 18.6498 12.827 19.1561 13.2912C19.4093 13.5021 19.5781 13.7131 19.7469 13.9663C19.9578 14.3038 20.0844 14.6414 20.1266 15.0633H14.2616V15.1055Z" fill="#0047FF"/>
<path d="M29.1139 0H25.654V22.1097H29.1139V0Z" fill="#0047FF"/>
<path d="M31.3924 23.9241V30H34.8523V23.9241V12.0253H31.3924V23.9241Z" fill="#0047FF"/>
<path d="M49.6202 17.1308C49.6624 16.5401 49.7047 16.2447 49.7047 16.2025C49.7047 14.9789 49.4515 13.8819 48.903 12.9536C48.3544 12.0253 47.6371 11.308 46.6666 10.8017C46.2025 10.5485 45.7384 10.3798 45.2321 10.2532C44.6836 10.1266 44.0928 10.0422 43.5021 10.0422C42.3207 10.0422 41.2236 10.2954 40.2532 10.8439C39.2827 11.3502 38.5232 12.1097 37.9747 13.038C37.4261 13.9663 37.1308 15.0211 37.1308 16.2025C37.1308 17.384 37.4261 18.4388 37.9747 19.3671C38.5232 20.2954 39.3249 21.0127 40.3798 21.5612C41.3924 22.0675 42.616 22.3629 43.924 22.3629C45.4008 22.3629 46.6667 22.0675 47.6371 21.4346L46.962 18.4388C46.5401 18.8186 46.1181 19.1139 45.6118 19.3249C45.1477 19.4937 44.5992 19.6203 43.9663 19.6203C43.0802 19.6203 42.3207 19.4093 41.73 18.9874C41.1392 18.5654 40.7595 17.9747 40.5907 17.2574H49.6202V17.1308ZM40.5907 15.1055C40.7173 14.346 41.0126 13.7553 41.5612 13.2912C42.1097 12.8692 42.7426 12.616 43.5443 12.616C44.3038 12.616 44.9789 12.827 45.4852 13.2912C45.7384 13.5021 45.9072 13.7131 46.076 14.0085C46.2869 14.346 46.4135 14.6836 46.4557 15.1055H40.5907Z" fill="#0047FF"/>
<path d="M59.2405 13.2068C58.903 13.1646 58.692 13.1646 58.6076 13.1646C57.6371 13.1646 56.8354 13.4599 56.2869 14.0085C55.7384 14.557 55.443 15.4009 55.443 16.4979V22.1097H51.9831V10.211H55.2742V11.7722C55.6962 11.1814 56.2447 10.7595 56.962 10.4641C57.4261 10.2532 57.9747 10.1266 58.5654 10.0844C58.7764 11.1392 59.0295 12.1519 59.2405 13.2068Z" fill="#0047FF"/>
<path d="M77.6371 9.15613C76.4135 8.94515 75.2743 9.74683 75.0211 10.9283C74.8101 12.1519 75.5696 13.2911 76.7932 13.5443C78.0169 13.7553 79.1561 12.9536 79.4093 11.7722C79.6625 10.5485 78.8607 9.40929 77.6371 9.15613Z" fill="#FF9700"/>
<path d="M70.5486 25.5696C69.3249 25.3587 68.1857 26.1604 67.9325 27.3418C67.7215 28.5654 68.4811 29.7047 69.7047 29.9578C70.9283 30.1688 72.0675 29.3671 72.3207 28.1857C72.5739 26.9621 71.7722 25.8228 70.5486 25.5696Z" fill="#FF9700"/>
<path d="M90.9705 25.5696C89.7468 25.3587 88.6076 26.1604 88.3544 27.3418C88.1435 28.5654 88.9029 29.7047 90.1266 29.9578C91.3502 30.1688 92.4895 29.3671 92.7426 28.1857C92.9958 26.9621 92.1941 25.8228 90.9705 25.5696Z" fill="#FF9700"/>
<path d="M94.5147 2.61604H68.481C68.3966 2.1519 68.27 1.72996 68.1856 1.26582C68.0169 0.548523 67.2574 0 66.5401 0H60.6329C60.8861 1.09705 61.1392 2.27848 61.3924 3.41772H65.1477C66.4135 9.19831 67.6793 14.9789 68.9451 20.7595C68.6498 21.4768 68.3123 22.1941 68.0169 22.9114C67.5106 24.0506 68.0591 25.4852 69.4937 25.4852H91.2658C93.4599 25.4852 93.4599 22.0675 91.2658 22.0675H72.0675C72.2785 21.3924 72.3629 20.7173 72.2785 20C78.6498 19.2405 85.0633 18.4388 91.4346 17.6793C92.4473 17.5527 93.4599 17.4262 94.4726 17.2996C95.4008 17.173 96.2025 16.6245 96.2025 15.5696V4.26161C96.2447 3.41772 95.443 2.61604 94.5147 2.61604ZM92.7848 14.135C86.2869 14.9367 79.789 15.7384 73.2489 16.4979C72.7004 16.5823 72.1097 16.6245 71.5612 16.7089C71.3502 15.6962 71.097 14.6414 70.8861 13.6287C70.3375 11.0971 69.789 8.60759 69.2405 6.07595H92.7848V14.135Z" fill="#FF9700"/>
<path d="M87.7637 10.7595C87.7637 10.8017 87.7637 10.8439 87.7215 10.8861C87.384 10.3798 86.8776 10 86.2447 9.87344C85.0633 9.66247 83.924 10.3798 83.6709 11.519C83.3755 11.0549 83.2489 10.5064 83.3755 9.91564C83.5865 8.69201 84.7679 7.89033 85.9916 8.1435C87.2152 8.39666 88.0169 9.53589 87.7637 10.7595Z" fill="#FF9700"/>
</svg>

<svg width="97" height="30" fill="none" xmlns="http://www.w3.org/2000/svg"><path d="M33.544 6.034a2.28 2.28 0 00-2.616 1.772c-.21 1.224.549 2.363 1.772 2.616a2.28 2.28 0 002.616-1.772 2.194 2.194 0 00-1.772-2.616zm-20.042.591H0v2.91h4.979V22.11h3.544V9.536h4.98V6.625z" fill="#0047FF"/><path d="M23.291 17.13c.042-.59.084-.885.084-.927 0-1.224-.253-2.321-.801-3.25-.549-.928-1.266-1.645-2.236-2.151a5.924 5.924 0 00-1.435-.549 7.765 7.765 0 00-1.73-.21c-1.181 0-2.278.252-3.249.8-.97.507-1.73 1.267-2.278 2.195-.549.928-.844 1.983-.844 3.165 0 1.181.295 2.236.844 3.164.548.928 1.35 1.646 2.405 2.194 1.012.506 2.236.802 3.544.802 1.477 0 2.743-.296 3.713-.928l-.169-.76-.506-2.194c-.422.38-.844.675-1.35.886a4.773 4.773 0 01-1.646.296c-.886 0-1.645-.212-2.236-.633-.59-.422-.97-1.013-1.14-1.73h9.03v-.17zm-9.03-2.024c.127-.76.423-1.35.971-1.815a3.127 3.127 0 011.983-.675c.76 0 1.435.211 1.941.675.253.211.422.422.59.675.212.338.338.675.38 1.097h-5.864v.042zM29.114 0h-3.46v22.11h3.46V0zm2.278 23.924V30h3.46V12.025h-3.46v11.9zM49.62 17.13c.042-.59.085-.885.085-.927 0-1.224-.253-2.321-.802-3.25-.549-.928-1.266-1.645-2.236-2.151a5.922 5.922 0 00-1.435-.549 7.765 7.765 0 00-1.73-.21c-1.181 0-2.278.252-3.249.8-.97.507-1.73 1.267-2.278 2.195-.549.928-.844 1.983-.844 3.165 0 1.181.295 2.236.844 3.164.548.928 1.35 1.646 2.405 2.194 1.012.506 2.236.802 3.544.802 1.477 0 2.743-.296 3.713-.928l-.675-2.996c-.422.38-.844.675-1.35.886a4.773 4.773 0 01-1.646.295c-.886 0-1.645-.21-2.236-.633-.59-.422-.97-1.012-1.14-1.73h9.03v-.126zm-9.03-2.024c.127-.76.423-1.35.971-1.815a3.127 3.127 0 011.983-.675c.76 0 1.435.211 1.941.675.253.211.422.422.591.717.21.338.337.676.38 1.098H40.59zm18.65-1.899c-.337-.042-.548-.042-.632-.042-.97 0-1.773.295-2.321.844-.549.548-.844 1.392-.844 2.489v5.612h-3.46v-11.9h3.291v1.561c.422-.59.97-1.013 1.688-1.308.464-.21 1.013-.337 1.603-.38.211 1.055.465 2.068.675 3.123z" fill="#0047FF"/><path d="M77.637 9.156a2.28 2.28 0 00-2.616 1.772c-.21 1.224.549 2.363 1.772 2.616a2.28 2.28 0 002.616-1.772c.253-1.223-.548-2.363-1.772-2.616zM70.549 25.57a2.28 2.28 0 00-2.617 1.772c-.21 1.223.55 2.363 1.773 2.616a2.28 2.28 0 002.616-1.772c.253-1.224-.549-2.363-1.772-2.616zm20.421 0a2.28 2.28 0 00-2.616 1.772c-.21 1.223.549 2.363 1.773 2.616a2.28 2.28 0 002.616-1.772c.253-1.224-.549-2.363-1.772-2.616z" fill="#FF9700"/><path d="M94.515 2.616H68.48c-.084-.464-.211-.886-.295-1.35C68.016.549 67.257 0 66.54 0h-5.907c.253 1.097.506 2.278.76 3.418h3.755l3.797 17.341c-.295.718-.633 1.435-.928 2.152-.506 1.14.042 2.574 1.477 2.574h21.772c2.194 0 2.194-3.418 0-3.418H72.067c.212-.675.296-1.35.212-2.067 6.37-.76 12.784-1.561 19.156-2.32l3.038-.38c.928-.127 1.73-.675 1.73-1.73V4.262c.042-.844-.76-1.646-1.688-1.646zm-1.73 11.519c-6.498.802-12.996 1.603-19.536 2.363-.549.084-1.14.127-1.688.21-.21-1.012-.464-2.067-.675-3.08-.548-2.53-1.097-5.02-1.645-7.552h23.544v8.059z" fill="#FF9700"/><path d="M87.764 10.76c0 .042 0 .084-.042.126a2.315 2.315 0 00-1.477-1.013c-1.182-.21-2.321.507-2.574 1.646a2.104 2.104 0 01-.296-1.603 2.194 2.194 0 012.617-1.773c1.223.254 2.025 1.393 1.772 2.616z" fill="#FF9700"/></svg>
